X:8
T:Ragged Sailor
M:6/8
L:1/8
K:G
D|G>AB gfe|dBG ABd| e2A A2B|G>AB ga/g/f/e/|dBG       ABd|BAG G2:|
g|ece  dBd|ecg dBG|Tc2B A2g|ece  dBd      |ga/g/f/e/ dBc|BAG G2:|

% @@@@@@@@@@@@@@@@@@@@@@@@@@@@@@@@@@

%%  9. ===============================================================================

%   ~  ^The  ~
% Cadger o' Crief.^
% ===============
%
% *TURN your Partner by the arm, and cast off one pair, that again.  *Lead up 2
% pair, and cast off one, lead down and cast up.  *SETT cross Partners.  *Lead
% out at both sides.

% @@@@@@@@@@@@@@@@@@@@@@@@@@@@@@@@@@

